.icons/Gruvbox-Plus-Dark/apps/16/arronax.svg

<svg width="16" height="16" version="1.1" xmlns="http://www.w3.org/2000/svg">
  <defs>
    <style type="text/css" id="current-color-scheme">.ColorScheme-Text { color:#ebdbb2; } .ColorScheme-Highlight { color:#458588; }</style>
  </defs>
  <path class="ColorScheme-Text" fill="currentColor" d="m9.967 9.347 1.989 5.653h1.967l-5.025-14h-1.794l-5.027 14h1.966l3.946-11.27 1.689 4.798c-0.629-0.168-1.316-0.109-1.907 0.159-0.604 0.278-1.113 0.797-1.296 1.517-0.109 0.439-0.067 0.912 0.124 1.321 0.193 0.41 0.553 0.759 1.047 0.872 0.29 0.066 0.6 0.03 0.869-0.107 0.271-0.134 0.509-0.395 0.574-0.742 0.037-0.2 8e-3 -0.404-0.086-0.591-0.099-0.186-0.288-0.356-0.537-0.394-0.141-0.021-0.275 5e-3 -0.404 0.079-0.13 0.073-0.258 0.227-0.275 0.418l0.66 0.063c-4e-3 0.046-0.046 0.095-0.058 0.103-0.015 8e-3 -5e-3 4e-3 -0.019 2e-3 0.021 4e-3 0.025 6e-3 0.044 0.044 0.021 0.038 0.032 0.107 0.023 0.151-0.023 0.123-0.095 0.207-0.216 0.267-0.124 0.059-0.295 0.079-0.429 0.053-0.28-0.065-0.469-0.246-0.592-0.506-0.122-0.257-0.151-0.587-0.081-0.865 0.13-0.511 0.473-0.864 0.927-1.072 0.455-0.209 1.012-0.253 1.498-0.114 0.148 0.042 0.289 0.097 0.423 0.163z"/>
</svg>

<svg xmlns="http://www.w3.org/2000/svg" style="isolation:isolate" width="16" height="16" viewBox="0 0 16 16">
 <defs>
  <style id="current-color-scheme" type="text/css">
   .ColorScheme-Text { color:#ebdbb2; } .ColorScheme-Highlight { color:#458588; }
  </style>
  <linearGradient id="arrongin" x1="0%" x2="0%" y1="0%" y2="100%">
   <stop offset="0%" style="stop-color:#d79921; stop-opacity:1"/>
   <stop offset="100%" style="stop-color:#b57614; stop-opacity:1"/>
  </linearGradient>
  <linearGradient id="aurora" x1="0%" x2="0%" y1="0%" y2="100%">
   <stop offset="0%" style="stop-color:#83a598; stop-opacity:1"/>
   <stop offset="100%" style="stop-color:#b16286; stop-opacity:1"/>
  </linearGradient>
  <linearGradient id="fitdance" x1="0%" x2="0%" y1="0%" y2="100%">
   <stop offset="0%" style="stop-color:#8ec07c; stop-opacity:1"/>
   <stop offset="100%" style="stop-color:#458588; stop-opacity:1"/>
  </linearGradient>
  <linearGradient id="oomox" x1="0%" x2="0%" y1="0%" y2="100%">
   <stop offset="0%" style="stop-color:#458588; stop-opacity:1"/>
   <stop offset="100%" style="stop-color:#928374; stop-opacity:1"/>
  </linearGradient>
  <linearGradient id="rainblue" x1="0%" x2="0%" y1="0%" y2="100%">
   <stop offset="0%" style="stop-color:#b8bb26; stop-opacity:1"/>
   <stop offset="100%" style="stop-color:#076678; stop-opacity:1"/>
  </linearGradient>
  <linearGradient id="sunrise" x1="0%" x2="0%" y1="0%" y2="100%">
   <stop offset="0%" style="stop-color: #fe8019; stop-opacity:1"/>
   <stop offset="100%" style="stop-color: #fabd2f; stop-opacity:1"/>
  </linearGradient>
  <linearGradient id="telinkrin" x1="0%" x2="0%" y1="0%" y2="100%">
   <stop offset="0%" style="stop-color: #83a598; stop-opacity:1"/>
   <stop offset="100%" style="stop-color: #83a598; stop-opacity:1"/>
  </linearGradient>
  <linearGradient id="60spsycho" x1="0%" x2="0%" y1="0%" y2="100%">
   <stop offset="0%" style="stop-color: #fb4934; stop-opacity:1"/>
   <stop offset="25%" style="stop-color: #fabd2f; stop-opacity:1"/>
   <stop offset="50%" style="stop-color: #fe8019; stop-opacity:1"/>
   <stop offset="100%" style="stop-color: #689d6a; stop-opacity:1"/>
  </linearGradient>
  <linearGradient id="90ssummer" x1="0%" x2="0%" y1="0%" y2="100%">
   <stop offset="0%" style="stop-color: #b16286; stop-opacity:1"/>
   <stop offset="20%" style="stop-color: #8ec07c; stop-opacity:1"/>
   <stop offset="50%" style="stop-color: #fabd2f; stop-opacity:1"/>
   <stop offset="100%" style="stop-color: #458588; stop-opacity:1"/>
  </linearGradient>
  <linearGradient id="cyberneon" x1="0%" x2="0%" y1="0%" y2="100%">
    <stop offset="0" style="stop-color:#83a598; stop-opacity:1"/>
    <stop offset="1" style="stop-color:#b16286; stop-opacity:1"/>
  </linearGradient>
  <clipPath id="_clipPath_mr20DGIwU80D2LGjAmKMWpLkJDeCeFa6">
   <rect width="16" height="16"/>
  </clipPath>
 </defs>
 <g clip-path="url(#_clipPath_mr20DGIwU80D2LGjAmKMWpLkJDeCeFa6)">
  <rect style="fill:currentColor" class="ColorScheme-Text" width="4.625" height="3.594" x="17.19" y=".06" transform="matrix(1,0,0,1,0,0)"/>
  <path style="fill:currentColor" class="ColorScheme-Text" d="M 9.967 9.347 L 11.956 15 L 11.957 15 L 13.923 15 L 8.898 1 L 7.104 1 L 2.077 15 L 4.043 15 L 7.989 3.728 L 9.678 8.526 C 9.049 8.358 8.362 8.417 7.771 8.685 C 7.167 8.963 6.658 9.482 6.475 10.202 C 6.366 10.641 6.408 11.114 6.599 11.523 C 6.792 11.933 7.152 12.282 7.646 12.395 C 7.936 12.461 8.246 12.425 8.515 12.288 C 8.786 12.154 9.024 11.893 9.089 11.546 C 9.126 11.346 9.097 11.142 9.003 10.955 C 8.904 10.769 8.715 10.599 8.466 10.561 C 8.325 10.54 8.191 10.566 8.062 10.64 C 7.932 10.713 7.804 10.867 7.787 11.058 L 8.447 11.121 C 8.443 11.167 8.401 11.216 8.389 11.224 C 8.374 11.232 8.384 11.228 8.37 11.226 C 8.391 11.23 8.395 11.232 8.414 11.27 C 8.435 11.308 8.446 11.377 8.437 11.421 C 8.414 11.544 8.342 11.628 8.221 11.688 C 8.097 11.747 7.926 11.767 7.792 11.741 C 7.512 11.676 7.323 11.495 7.2 11.235 C 7.078 10.978 7.049 10.648 7.119 10.37 C 7.249 9.859 7.592 9.506 8.046 9.298 C 8.501 9.089 9.058 9.045 9.544 9.184 C 9.692 9.226 9.833 9.281 9.967 9.347 Z"/>
 </g>
</svg>
